src/assets/icons/stroke/insertLink.svg

<svg width="1em" height="1em" viewBox="0 0 24 24" fill="none" xmlns="http://www.w3.org/2000/svg">
<path d="M11 17H7C5.67392 17 4.40215 16.4732 3.46447 15.5355C2.52678 14.5979 2 13.3261 2 12C2 10.6739 2.52678 9.40215 3.46447 8.46447C4.40215 7.52678 5.67392 7 7 7H11V9H7C6.20435 9 5.44129 9.31607 4.87868 9.87868C4.31607 10.4413 4 11.2044 4 12C4 12.7956 4.31607 13.5587 4.87868 14.1213C5.44129 14.6839 6.20435 15 7 15H11V17ZM17 7H13V9H17C17.7956 9 18.5587 9.31607 19.1213 9.87868C19.6839 10.4413 20 11.2044 20 12C20 12.7956 19.6839 13.5587 19.1213 14.1213C18.5587 14.6839 17.7956 15 17 15H13V17H17C18.3261 17 19.5979 16.4732 20.5355 15.5355C21.4732 14.5979 22 13.3261 22 12C22 10.6739 21.4732 9.40215 20.5355 8.46447C19.5979 7.52678 18.3261 7 17 7ZM16 11H8V13H16V11Z" fill="currentColor"/>
</svg>

<svg xmlns="http://www.w3.org/2000/svg" width="1em" height="1em" fill="none"><path fill="currentColor" d="M11 17H7A5 5 0 0 1 7 7h4v2H7a3 3 0 1 0 0 6h4v2Zm6-10h-4v2h4a3 3 0 0 1 0 6h-4v2h4a5 5 0 1 0 0-10Zm-1 4H8v2h8v-2Z"/></svg>
